X:1
T:The Geese in the Bog
R:Jig
M:6/8
L:1/8
K:D
f|gBB dBB|gBB def|gBB dA2|Bee e2f|gBB dBB|gBB def|gfe dA2|Bee e2:||!
d|e2a egg|e2a ged|e2a eff|eaa a2d|e2a egg|e2a ged|gfe dA2|Bee e2:||!
f|gBB BBB|dBB BBB|gBB dA2|Bee e2f|gBB BBB|dBB BBB|gfe dA2|Bee e2:||!
d|eaa egg|eaa ged|eaa egg|eaa a2d|eaa egg|eaa ged|gfe dA2|Bee e2:||
